icons/bag-chevron-down.svg

<svg xmlns="http://www.w3.org/2000/svg" width="24" height="24" viewBox="0 0 24 24">
  <path d="M14,2 C15.5976809,2 16.9036609,3.24891996 16.9949073,4.82372721 L17,5 L17,6 L20,6 C21.1045695,6 22,6.8954305 22,8 L22,20 C22,21.1045695 21.1045695,22 20,22 L4,22 C2.8954305,22 2,21.1045695 2,20 L2,8 C2,6.8954305 2.8954305,6 4,6 L7,6 L7,5 C7,3.40231912 8.24891996,2.09633912 9.82372721,2.00509269 L10,2 L14,2 Z M8.38710056,11.7097046 L8.29289322,11.7928932 C7.93240926,12.1533772 7.90467972,12.7206082 8.20970461,13.1128994 L8.29289322,13.2071068 L11.2928932,16.2071068 C11.6533772,16.5675907 12.2206082,16.5953203 12.6128994,16.2902954 L12.7071068,16.2071068 L15.7071068,13.2071068 C16.0976311,12.8165825 16.0976311,12.1834175 15.7071068,11.7928932 C15.3466228,11.4324093 14.7793918,11.4046797 14.3871006,11.7097046 L14.2928932,11.7928932 L12,14.085 L9.70710678,11.7928932 C9.34662282,11.4324093 8.77939176,11.4046797 8.38710056,11.7097046 Z M14,4 L10,4 C9.48716416,4 9.06449284,4.38604019 9.00672773,4.88337887 L9,5 L9,6 L15,6 L15,5 C15,4.48716416 14.6139598,4.06449284 14.1166211,4.00672773 L14,4 Z"/>
</svg>

<svg xmlns="http://www.w3.org/2000/svg" viewBox="0 0 24 24">
  <path d="M14 2a3 3 0 0 1 3 2.82V6h3a2 2 0 0 1 2 2v12a2 2 0 0 1-2 2H4a2 2 0 0 1-2-2V8c0-1.1.9-2 2-2h3V5a3 3 0 0 1 2.82-3H14zm-5.61 9.71-.1.08a1 1 0 0 0-.08 1.32l.08.1 3 3a1 1 0 0 0 1.32.08l.1-.08 3-3a1 1 0 0 0-1.32-1.5l-.1.08L12 14.1l-2.3-2.3a1 1 0 0 0-1.31-.08zM14 4h-4a1 1 0 0 0-1 .88V6h6V5a1 1 0 0 0-.88-1H14z"/>
</svg>
